public/icons/black/wallet.svg

<svg width="24" height="24" viewBox="0 0 24 24" fill="none" xmlns="http://www.w3.org/2000/svg">
    <path
        d="M18.0001 13.5C17.5001 13.5 17.0001 14 17.0001 14.5C17.0001 15 17.5001 15.5 18.0001 15.5C18.5001 15.5 19.0001 15 19.0001 14.5C19.0001 14 18.5001 13.5 18.0001 13.5Z"
        fill="#000000" />
    <path fill-rule="evenodd" clip-rule="evenodd"
        d="M1.75003 6.00001C0.750031 6.00001 0 6.75001 0 7.75001V22.25C3.05176e-05 23.25 0.75003 24 1.75002 24H20.25C21.25 24 22 23.25 22 22.2485V18H22.5C23.5 18 24 17.5 24 16.5C24 15.5 24 12.5 24 12.5C24 11.5 23.5 11 22.5 11C22.5 11 22.4812 11 22 11V7.75061C22 6.75001 21.25 6.00001 20.2461 6.00001C20.2461 6.00001 3.00003 6.00001 1.75003 6.00001ZM18 11H20.5V7.75061C20.5 7.56651 20.3842 7.50001 20.2461 7.50001H1.75003C1.60003 7.50001 1.50002 7.60001 1.50002 7.75001V22.25C1.50002 22.4 1.60003 22.5 1.75002 22.5H20.25C20.4 22.5 20.5 22.4 20.5 22.2485V18H18C16 18 14.5 16.5 14.5 14.5C14.5 12.5 16 11 18 11ZM18 12.5C17 12.5 16 13.5 16 14.5C16 15.5 17 16.5 18 16.5C19 16.5 21.75 16.5 22 16.5C22.25 16.5 22.5 16.25 22.5 16C22.5 15.5 22.5 13.2539 22.5 13C22.5 12.7461 22.25 12.5 22 12.5C21.75 12.5 19 12.5 18 12.5Z"
        fill="#000000" />
    <path
        d="M2.37448 6.00001H6.29417L16.5783 1.74018C16.7059 1.68734 16.8383 1.70445 16.9088 1.87453L17.0616 2.24351L8 6.00001H11.918L17.6331 3.62326L18.6176 6.00001H20.2461L18.2946 1.30051C17.9117 0.376077 16.9318 -0.0298188 16.0043 0.354359L2.37448 6.00001Z"
        fill="#000000" />
</svg>

<svg width="24" height="24" fill="none" xmlns="http://www.w3.org/2000/svg">
    <path d="M18 13.5c-.5 0-1 .5-1 1s.5 1 1 1 1-.5 1-1-.5-1-1-1z" fill="#000" />
    <path fill-rule="evenodd" clip-rule="evenodd"
        d="M1.75 6C.75 6 0 6.75 0 7.75v14.5C0 23.25.75 24 1.75 24h18.5c1 0 1.75-.75 1.75-1.752V18h.5c1 0 1.5-.5 1.5-1.5v-4c0-1-.5-1.5-1.5-1.5H22V7.75c0-1-.75-1.75-1.754-1.75H1.75zM18 11h2.5V7.75c0-.183-.116-.25-.254-.25H1.75c-.15 0-.25.1-.25.25v14.5c0 .15.1.25.25.25h18.5c.15 0 .25-.1.25-.252V18H18c-2 0-3.5-1.5-3.5-3.5S16 11 18 11zm0 1.5c-1 0-2 1-2 2s1 2 2 2h4c.25 0 .5-.25.5-.5v-3c0-.254-.25-.5-.5-.5h-4z"
        fill="#000" />
    <path
        d="M2.374 6h3.92l10.284-4.26c.128-.053.26-.036.33.135l.154.369L8 6h3.918l5.715-2.377L18.618 6h1.628l-1.951-4.7c-.383-.924-1.363-1.33-2.29-.946L2.374 6z"
        fill="#000" />
</svg>
